X:460
M:C
L:1/8
K:F
f|c>df>g a>gf>a|g>fg>a g>fd>f|c>df>g a>gf>a|g>fb>a g2 f>d|
c>df>g a>gf>a|g>fg>a g>fd>f|~c>df>g f<g a>g|f>cb>a g2f||

